libs/assets/src/lib/icons/ChartLineUp.svg

<svg xmlns="http://www.w3.org/2000/svg" fill="none" viewBox="0 0 24 24">
  <path fill="currentColor" d="M21.75 19.5c0 .1989-.079.3897-.2197.5303-.1406.1407-.3314.2197-.5303.2197H3c-.19891 0-.38968-.079-.53033-.2197-.14065-.1406-.21967-.3314-.21967-.5303v-15c0-.19891.07902-.38968.21967-.53033C2.61032 3.82902 2.80109 3.75 3 3.75c.19891 0 .38968.07902.53033.21967.14065.14065.21967.33142.21967.53033v10.1897l4.71937-4.72033c.06966-.06973.15238-.12505.24342-.16279.09105-.03774.18865-.05717.28721-.05717.09856 0 .19616.01943.28721.05717.09104.03774.17376.09306.24342.16279L12 12.4397 16.9397 7.5H15c-.1989 0-.3897-.07902-.5303-.21967-.1407-.14065-.2197-.33142-.2197-.53033 0-.19891.079-.38968.2197-.53033C14.6103 6.07902 14.8011 6 15 6h3.75c.1989 0 .3897.07902.5303.21967.1407.14065.2197.33142.2197.53033v3.75c0 .1989-.079.3897-.2197.5303-.1406.1407-.3314.2197-.5303.2197-.1989 0-.3897-.079-.5303-.2197C18.079 10.8897 18 10.6989 18 10.5V8.56031l-5.4694 5.47029c-.0696.0698-.1523.1251-.2434.1628-.091.0378-.1886.0572-.2872.0572-.0986 0-.1962-.0194-.2872-.0572-.0911-.0377-.1738-.093-.2434-.1628L9 11.5603l-5.25 5.25V18.75H21c.1989 0 .3897.079.5303.2197.1407.1406.2197.3314.2197.5303Z"/>
</svg>

<svg width="24" height="24" viewBox="0 0 24 24" fill="none" xmlns="http://www.w3.org/2000/svg">
<path d="M21.75 19.5C21.75 19.6989 21.671 19.8897 21.5303 20.0303C21.3897 20.171 21.1989 20.25 21 20.25H3C2.80109 20.25 2.61032 20.171 2.46967 20.0303C2.32902 19.8897 2.25 19.6989 2.25 19.5V4.5C2.25 4.30109 2.32902 4.11032 2.46967 3.96967C2.61032 3.82902 2.80109 3.75 3 3.75C3.19891 3.75 3.38968 3.82902 3.53033 3.96967C3.67098 4.11032 3.75 4.30109 3.75 4.5V14.6897L8.46937 9.96937C8.53903 9.89964 8.62175 9.84432 8.71279 9.80658C8.80384 9.76884 8.90144 9.74941 9 9.74941C9.09856 9.74941 9.19616 9.76884 9.28721 9.80658C9.37825 9.84432 9.46097 9.89964 9.53063 9.96937L12 12.4397L16.9397 7.5H15C14.8011 7.5 14.6103 7.42098 14.4697 7.28033C14.329 7.13968 14.25 6.94891 14.25 6.75C14.25 6.55109 14.329 6.36032 14.4697 6.21967C14.6103 6.07902 14.8011 6 15 6H18.75C18.9489 6 19.1397 6.07902 19.2803 6.21967C19.421 6.36032 19.5 6.55109 19.5 6.75V10.5C19.5 10.6989 19.421 10.8897 19.2803 11.0303C19.1397 11.171 18.9489 11.25 18.75 11.25C18.5511 11.25 18.3603 11.171 18.2197 11.0303C18.079 10.8897 18 10.6989 18 10.5V8.56031L12.5306 14.0306C12.461 14.1004 12.3783 14.1557 12.2872 14.1934C12.1962 14.2312 12.0986 14.2506 12 14.2506C11.9014 14.2506 11.8038 14.2312 11.7128 14.1934C11.6217 14.1557 11.539 14.1004 11.4694 14.0306L9 11.5603L3.75 16.8103V18.75H21C21.1989 18.75 21.3897 18.829 21.5303 18.9697C21.671 19.1103 21.75 19.3011 21.75 19.5Z" fill="#4F1650"/>
</svg>
